svg/business/anniversary_line.svg

<?xml version="1.0" encoding="UTF-8"?>
<svg width="24px" height="24px" viewBox="0 0 24 24" version="1.1" xmlns="http://www.w3.org/2000/svg" xmlns:xlink="http://www.w3.org/1999/xlink">
    <title>anniversary_line</title>
    <g id="Icon" stroke="none" stroke-width="1" fill="none" fill-rule="evenodd">
        <g id="Business" transform="translate(0.000000, -480.000000)">
            <g id="anniversary_line" transform="translate(0.000000, 480.000000)">
                <path d="M24,0 L24,24 L0,24 L0,0 L24,0 Z M12.5935,23.2578 L12.5819,23.2595 L12.5109,23.295 L12.4919,23.2987 L12.4767,23.295 L12.4057,23.2595 C12.3958,23.2564 12.387,23.259 12.3821,23.2649 L12.378,23.2758 L12.3609,23.7031 L12.3659,23.7235 L12.3769,23.7357 L12.4805,23.8097 L12.4953,23.8136 L12.5071,23.8097 L12.6107,23.7357 L12.6233,23.7197 L12.6267,23.7031 L12.6096,23.2758 C12.6076,23.2657 12.601,23.2593 12.5935,23.2578 Z M12.8584,23.1453 L12.8445,23.1473 L12.6598,23.2397 L12.6499,23.2499 L12.6472,23.2611 L12.6651,23.6906 L12.6699,23.7034 L12.6784,23.7105 L12.8793,23.8032 C12.8914,23.8069 12.9022,23.803 12.9078,23.7952 L12.9118,23.7812 L12.8777,23.1665 C12.8753,23.1546 12.8674,23.147 12.8584,23.1453 Z M12.143,23.1473 C12.1332,23.1424 12.1222,23.1453 12.1156,23.1526 L12.1099,23.1665 L12.0758,23.7812 C12.0751,23.7927 12.0828,23.8019 12.0926,23.8046 L12.1083,23.8032 L12.3092,23.7105 L12.3186,23.7024 L12.3225,23.6906 L12.3404,23.2611 L12.3372,23.2485 L12.3278,23.2397 L12.143,23.1473 Z" id="MingCute" fill-rule="nonzero"></path>
                <path d="M16,3 C16.51285,3 16.9355092,3.38604429 16.9932725,3.88337975 L17,4 L17,5 L19,5 C20.0543909,5 20.9181678,5.81587733 20.9945144,6.85073759 L21,7 L21,19 C21,20.0543909 20.18415,20.9181678 19.1492661,20.9945144 L19,21 L5,21 C3.94563773,21 3.08183483,20.18415 3.00548573,19.1492661 L3,19 L3,7 C3,5.94563773 3.81587733,5.08183483 4.85073759,5.00548573 L5,5 L7,5 L7,4 C7,3.44772 7.44772,3 8,3 C8.51283143,3 8.93550653,3.38604429 8.9932722,3.88337975 L9,4 L9,5 L15,5 L15,4 C15,3.44772 15.4477,3 16,3 Z M19,7 L5,7 L5,19 L19,19 L19,7 Z M15.1658,8.87598 C16.278,9.52397 17.0321,10.8179 16.9989,12.2982 C16.9577462,14.1335846 15.5893919,15.6416763 13.5611178,16.8973286 L13.3146,17.0468 C12.9124,17.2866 12.4851,17.5554 12.0000059,17.5554 C11.6361765,17.5554 11.3048629,17.4042 10.9922673,17.2274344 L10.6854,17.0468 L10.6854,17.0468 C8.52222,15.7618 7.04387,14.207 7.00106,12.2982 C6.96786,10.8179 7.72198,9.52397 8.83417,8.87598 C9.78795,8.32029 10.9691,8.26912 12.0000059,8.91268 C13.0309,8.26912 14.2121,8.32029 15.1658,8.87598 Z M14.159,10.6041 C13.7801692,10.3833923 13.3295089,10.3578089 12.8814244,10.7403412 L12.7695,10.8446 C12.3767143,11.2418429 11.7511224,11.2702173 11.3250787,10.9297235 L11.2305,10.8446 C10.7461,10.3549 10.2514,10.365 9.841,10.6041 C9.37989,10.8727 8.98309,11.4745 9.00055,12.2533 C9.0180316,13.032436 9.61948504,14.0338619 11.4690551,15.182906 L11.7068,15.3273 C11.8041,15.3851 11.9008,15.4441 11.9999948,15.4985 L12.1473118,15.414175 L12.1473118,15.414175 L12.2932,15.3273 C14.3294,14.1177 14.9812,13.0649 14.9994,12.2533 C15.0169,11.4745 14.6201,10.8727 14.159,10.6041 Z" id="形状" fill="#09244B"></path>
            </g>
        </g>
    </g>
</svg>

<svg xmlns="http://www.w3.org/2000/svg" width="24" height="24"><g fill="none" fill-rule="evenodd"><path d="M24 0v24H0V0zM12.594 23.258l-.012.002-.071.035-.02.004-.014-.004-.071-.036c-.01-.003-.019 0-.024.006l-.004.01-.017.428.005.02.01.013.104.074.015.004.012-.004.104-.074.012-.016.004-.017-.017-.427c-.002-.01-.009-.017-.016-.018m.264-.113-.014.002-.184.093-.01.01-.003.011.018.43.005.012.008.008.201.092c.012.004.023 0 .029-.008l.004-.014-.034-.614c-.003-.012-.01-.02-.02-.022m-.715.002a.023.023 0 0 0-.027.006l-.006.014-.034.614c0 .012.007.02.017.024l.015-.002.201-.093.01-.008.003-.011.018-.43-.003-.012-.01-.01z"/><path fill="#09244B" d="M16 3a1 1 0 0 1 .993.883L17 4v1h2a2 2 0 0 1 1.995 1.85L21 7v12a2 2 0 0 1-1.85 1.995L19 21H5a2 2 0 0 1-1.995-1.85L3 19V7a2 2 0 0 1 1.85-1.995L5 5h2V4a1 1 0 0 1 1.993-.117L9 4v1h6V4a1 1 0 0 1 1-1m3 4H5v12h14zm-3.834 1.876c1.112.648 1.866 1.942 1.833 3.422-.041 1.836-1.41 3.344-3.438 4.6l-.246.149c-.403.24-.83.508-1.315.508-.364 0-.695-.15-1.008-.328l-.307-.18c-2.163-1.285-3.641-2.84-3.684-4.749-.033-1.48.721-2.774 1.833-3.422.954-.556 2.135-.607 3.166.037 1.03-.644 2.212-.593 3.166-.037m-1.007 1.728c-.379-.22-.83-.246-1.278.136l-.111.105a1.084 1.084 0 0 1-1.445.085l-.095-.085c-.484-.49-.979-.48-1.389-.24-.461.268-.858.87-.84 1.648.017.78.618 1.78 2.468 2.93l.238.144c.097.058.194.117.293.172l.147-.085.146-.087c2.036-1.21 2.688-2.262 2.706-3.074.018-.778-.379-1.38-.84-1.649"/></g></svg>
